icons/person-information-two-color.svg

<?xml version="1.0" encoding="UTF-8"?><svg id="uuid-e0dfeada-0d20-44bb-b6cb-131d8e99204c" xmlns="http://www.w3.org/2000/svg" viewBox="0 0 50 50"><path d="M15.57,16.5c1.62,1.37,3.67,2.12,5.78,2.12s4.17-.75,5.78-2.12c2.02-1.71,3.18-4.21,3.18-6.85C30.32,4.72,26.3,.69,21.36,.69S12.39,4.72,12.39,9.66c0,2.64,1.16,5.14,3.18,6.85Zm13.75-6.85c0,2.35-1.03,4.56-2.83,6.08-1.44,1.21-3.26,1.88-5.14,1.88s-3.7-.67-5.14-1.88c-1.8-1.52-2.83-3.74-2.83-6.08,0-4.39,3.57-7.96,7.96-7.96s7.97,3.57,7.97,7.96Z"/><rect x="34.55" y="30.53" width="1.91" height="7.13" fill="#ffcd00"/><path d="M35.51,29.68c.32,0,.58-.09,.77-.28,.2-.18,.29-.42,.29-.71s-.1-.52-.29-.7c-.19-.18-.45-.28-.78-.28s-.59,.09-.78,.28c-.19,.18-.29,.42-.29,.7s.1,.53,.29,.71c.2,.18,.45,.28,.77,.28Z" fill="#ffcd00"/><path d="M27.83,32.69c0-4.03,3.12-7.34,7.08-7.65-1.38-1.26-3.17-2.07-5.17-2.2-.09,.02-.18,.02-.27,0h-12.9c-4.48,.22-8.01,3.93-8.01,8.44v18.04h29.1v-9.25c-.68,.2-1.4,.31-2.15,.31-4.24,0-7.68-3.45-7.68-7.68Z" fill="#ffcd00"/><path d="M44.19,32.69c0-4.79-3.89-8.68-8.68-8.68-.11,0-.23,.01-.34,.02-1.62-2.3-4.24-3.85-7.25-4H14.79c-5.04,.25-8.99,4.4-8.99,9.44v18.54c0,.28,.22,.5,.5,.5h30.1c.28,0,.5-.22,.5-.5v-6.76c4.12-.67,7.29-4.25,7.29-8.56ZM6.81,29.46c0-4.51,3.53-8.21,8.01-8.44h12.89c.09,.03,.18,.03,.27,0,2.44,.15,4.59,1.34,6.03,3.11-4.08,.71-7.19,4.27-7.19,8.54,0,2.21,.84,4.23,2.21,5.77v9.05H13.76V31.24c0-.28-.22-.5-.5-.5s-.5,.22-.5,.5v16.26H6.81V29.46Zm23.23,18.04v-8.08c1.49,1.22,3.4,1.95,5.47,1.95,.13,0,.26-.01,.4-.02v6.15h-5.87Zm5.47-7.13c-4.24,0-7.68-3.45-7.68-7.68s3.45-7.68,7.68-7.68,7.68,3.45,7.68,7.68-3.45,7.68-7.68,7.68Z"/><path d="M35.51,27.71c-.33,0-.59,.09-.78,.28-.19,.18-.29,.42-.29,.7s.1,.53,.29,.71c.2,.18,.45,.28,.77,.28s.58-.09,.77-.28c.2-.18,.29-.42,.29-.71s-.1-.52-.29-.7c-.19-.18-.45-.28-.78-.28Z"/><rect x="34.55" y="30.53" width="1.91" height="7.13"/></svg>

<svg id="ad24bf2c-0a0f-471a-88aa-45f1f058b82a" data-name="ICONS" xmlns="http://www.w3.org/2000/svg" viewBox="0 0 50 50"><path d="M15.57,16.5a9,9,0,1,0-3.18-6.84A9,9,0,0,0,15.57,16.5ZM29.32,9.66a8,8,0,1,1-8-8A8,8,0,0,1,29.32,9.66Z" fill="#231f20"/><rect x="34.55" y="30.53" width="1.91" height="7.13" fill="#fdd600"/><path d="M35.51,29.68a1,1,0,0,0,.77-.28,1,1,0,0,0,0-1.41,1.07,1.07,0,0,0-.78-.28,1.05,1.05,0,0,0-.78.28,1,1,0,0,0,0,1.41A1,1,0,0,0,35.51,29.68Z" fill="#fdd600"/><path d="M27.83,32.69A7.68,7.68,0,0,1,34.9,25a8.36,8.36,0,0,0-5.17-2.2.46.46,0,0,1-.26,0H16.57a8.44,8.44,0,0,0-8,8.44v18h29.1V40.06a7.67,7.67,0,0,1-9.83-7.37Z" fill="#fdd600"/><path d="M44.19,32.69A8.69,8.69,0,0,0,35.51,24l-.34,0a9.44,9.44,0,0,0-7.25-4H14.79a9.44,9.44,0,0,0-9,9.43V48a.5.5,0,0,0,.5.5h30.1a.5.5,0,0,0,.5-.5V41.25A8.7,8.7,0,0,0,44.19,32.69ZM6.81,29.46a8.44,8.44,0,0,1,8-8.43H27.71A.61.61,0,0,0,28,21a8.45,8.45,0,0,1,6,3.11,8.66,8.66,0,0,0-5,14.31v9H13.76V31.24a.5.5,0,0,0-.5-.5.5.5,0,0,0-.5.5V47.5H6.81ZM30,47.5V39.42a8.61,8.61,0,0,0,5.47,1.95l.4,0V47.5Zm5.47-7.13a7.69,7.69,0,1,1,7.68-7.68A7.69,7.69,0,0,1,35.51,40.37Z" fill="#231f20"/><path d="M35.51,27.71a1.05,1.05,0,0,0-.78.28,1,1,0,0,0,0,1.41,1.2,1.2,0,0,0,1.54,0,1,1,0,0,0,0-1.41A1.07,1.07,0,0,0,35.51,27.71Z" fill="#231f20"/><rect x="34.55" y="30.53" width="1.91" height="7.13" fill="#231f20"/></svg>
